SVG_Azure_All/Shared Integration Runtime.svg

<?xml version="1.0" encoding="UTF-8" standalone="no"?>
<!-- Generated by Microsoft Visio, SVG Export Shared Integration Runtime.svg Page-1 -->

<svg
   xmlns:dc="http://purl.org/dc/elements/1.1/"
   xmlns:cc="http://creativecommons.org/ns#"
   xmlns:rdf="http://www.w3.org/1999/02/22-rdf-syntax-ns#"
   xmlns:svg="http://www.w3.org/2000/svg"
   xmlns="http://www.w3.org/2000/svg"
   xmlns:sodipodi="http://sodipodi.sourceforge.net/DTD/sodipodi-0.dtd"
   xmlns:inkscape="http://www.inkscape.org/namespaces/inkscape"
   width="0.78740078in"
   height="0.78739941in"
   viewBox="0 0 56.692854 56.692898"
   xml:space="preserve"
   class="st12"
   version="1.1"
   id="svg132"
   sodipodi:docname="Shared Integration Runtime.svg"
   style="font-size:12px;overflow:visible;color-interpolation-filters:sRGB;fill:none;fill-rule:evenodd;stroke-linecap:square;stroke-miterlimit:3"
   inkscape:version="0.92.5 (2060ec1f9f, 2020-04-08)"><metadata
   id="metadata136"><rdf:RDF><cc:Work
       rdf:about=""><dc:format>image/svg+xml</dc:format><dc:type
         rdf:resource="http://purl.org/dc/dcmitype/StillImage" /></cc:Work></rdf:RDF></metadata><sodipodi:namedview
   pagecolor="#ffffff"
   bordercolor="#666666"
   borderopacity="1"
   objecttolerance="10"
   gridtolerance="10"
   guidetolerance="10"
   inkscape:pageopacity="0"
   inkscape:pageshadow="2"
   inkscape:window-width="640"
   inkscape:window-height="480"
   id="namedview134"
   showgrid="false"
   inkscape:zoom="1.8365233"
   inkscape:cx="37.795184"
   inkscape:cy="18.897555"
   inkscape:window-x="0"
   inkscape:window-y="0"
   inkscape:window-maximized="0"
   inkscape:current-layer="svg132" />
	<style
   type="text/css"
   id="style2">
	<![CDATA[
		.st1 {fill:none;stroke:none;stroke-linecap:butt;stroke-width:0.48}
		.st2 {fill:url(#grad0-8);stroke:none;stroke-linecap:butt;stroke-width:0.48}
		.st3 {fill:#003067;stroke:none;stroke-linecap:butt;stroke-width:0.48}
		.st4 {fill:#50e6ff;stroke:none;stroke-linecap:butt;stroke-width:0.48}
		.st5 {fill:url(#grad0-20);stroke:none;stroke-linecap:butt;stroke-width:0.48}
		.st6 {fill:#ffffff;stroke:none;stroke-linecap:butt;stroke-width:0.48}
		.st7 {fill:#ffffff}
		.st8 {stroke:none;stroke-linecap:butt;stroke-width:0.48}
		.st9 {fill:#212121;stroke:none;stroke-linecap:butt;stroke-width:0.48}
		.st10 {fill:#76bc2d;stroke:none;stroke-linecap:butt;stroke-width:0.48}
		.st11 {fill:#76bc2d}
		.st12 {fill:none;fill-rule:evenodd;font-size:12px;overflow:visible;stroke-linecap:square;stroke-miterlimit:3}
	]]>
	</style>

	<defs
   id="Patterns_And_Gradients">
		<linearGradient
   id="grad0-8"
   x1="0"
   y1="31.130509"
   x2="42.73356"
   y2="31.130509"
   gradientTransform="scale(0.76638378,1.3048293)"
   gradientUnits="userSpaceOnUse">
			<stop
   offset="0"
   stop-color="#949494"
   stop-opacity="1"
   id="stop4" />
			<stop
   offset="0.53"
   stop-color="#a2a2a2"
   stop-opacity="1"
   id="stop6" />
			<stop
   offset="1"
   stop-color="#b3b3b3"
   stop-opacity="1"
   id="stop8" />
		</linearGradient>
		<linearGradient
   id="grad0-20"
   x1="0"
   y1="74.8346"
   x2="21.5434"
   y2="74.8346"
   gradientUnits="userSpaceOnUse">
			<stop
   offset="0"
   stop-color="#5e9624"
   stop-opacity="1"
   id="stop11" />
			<stop
   offset="0.255"
   stop-color="#619c25"
   stop-opacity="1"
   id="stop13" />
			<stop
   offset="0.51"
   stop-color="#76bc2d"
   stop-opacity="1"
   id="stop15" />
			<stop
   offset="0.91"
   stop-color="#86d633"
   stop-opacity="1"
   id="stop17" />
			<stop
   offset="1"
   stop-color="#86d633"
   stop-opacity="1"
   id="stop19" />
		</linearGradient>
	</defs>
	<g
   id="g130"
   transform="translate(-5.6693772,-5.6693014)">
		<title
   id="title23">Page-1</title>
		<g
   id="group1503-1"
   transform="translate(5.66929,-34.0157)">
			<title
   id="title25">Shared Integration Runtime</title>
			<g
   id="shape1504-2">
				<title
   id="title27">Sheet.1504</title>
				<rect
   x="0"
   y="39.685001"
   width="56.692902"
   height="56.692902"
   class="st1"
   id="rect29"
   style="fill:none;stroke:none;stroke-width:0.47999999;stroke-linecap:butt" />
			</g>
			<g
   id="group1505-4"
   transform="translate(11.9724,-0.933732)">
				<title
   id="title32">Sheet.1505</title>
				<g
   id="shape1506-5">
					<title
   id="title34">Sheet.1506</title>
					<path
   d="m 0,42.52 a 1.90035,1.90035 0 0 1 1.9,-1.9 h 29.01 a 1.86633,1.86633 0 0 1 1.84,1.9 v 51.96 a 1.90091,1.90091 0 0 1 -1.9,1.9 H 1.9 A 1.9338,1.9338 0 0 1 0,94.48 Z"
   class="st2"
   id="path36"
   inkscape:connector-curvature="0"
   style="fill:url(#grad0-8);stroke:none;stroke-width:0.47999999;stroke-linecap:butt" />
				</g>
				<g
   id="shape1507-9"
   transform="translate(4.40164,-32.6483)">
					<title
   id="title39">Sheet.1507</title>
					<path
   d="M 20.01,96.38 H 3.67 c -0.04,0 -0.07,0 -0.1,0 A 3.56825,3.56825 0 0 1 0,92.81 c 0,-0.03 0,-0.05 0,-0.07 a 3.56825,3.56825 0 0 1 3.67,-3.47 h 16.34 a 3.55181,3.55181 0 0 1 0,7.1 z"
   class="st3"
   id="path41"
   inkscape:connector-curvature="0"
   style="fill:#003067;stroke:none;stroke-width:0.47999999;stroke-linecap:butt" />
				</g>
				<g
   id="shape1508-11"
   transform="translate(4.40164,-43.2198)">
					<title
   id="title44">Sheet.1508</title>
					<path
   d="M 20.01,96.38 H 3.67 3.6 A 3.56825,3.56825 0 0 1 0,92.84 c 0,-0.03 0,-0.07 0,-0.1 a 3.56769,3.56769 0 0 1 3.67,-3.47 h 16.34 a 3.555,3.555 0 0 1 0,7.11 z"
   class="st3"
   id="path46"
   inkscape:connector-curvature="0"
   style="fill:#003067;stroke:none;stroke-width:0.47999999;stroke-linecap:butt" />
				</g>
				<g
   id="shape1509-13"
   transform="translate(21.8098,-44.3537)">
					<title
   id="title49">Sheet.1509</title>
					<circle
   cx="2.4009399"
   cy="93.976997"
   class="st4"
   id="ellipse51"
   r="2.4009399"
   style="fill:#50e6ff;stroke:none;stroke-width:0.47999999;stroke-linecap:butt" />
				</g>
				<g
   id="shape1510-15"
   transform="translate(21.8098,-33.8156)">
					<title
   id="title54">Sheet.1510</title>
					<circle
   cx="2.4009399"
   cy="93.976997"
   class="st4"
   id="ellipse56"
   r="2.4009399"
   style="fill:#50e6ff;stroke:none;stroke-width:0.47999999;stroke-linecap:butt" />
				</g>
			</g>
			<g
   id="shape1511-17"
   transform="translate(35.1496,-0.993827)">
				<title
   id="title60">Sheet.1511</title>
				<circle
   cx="10.7717"
   cy="85.6063"
   class="st5"
   id="ellipse62"
   r="10.7717"
   style="fill:url(#grad0-20);stroke:none;stroke-width:0.47999999;stroke-linecap:butt" />
			</g>
			<g
   id="shape1512-21"
   transform="translate(37.7274,-11.0081)">
				<title
   id="title65">Sheet.1512</title>
				<rect
   x="0"
   y="94.863098"
   width="2.0392399"
   height="1.51483"
   class="st6"
   id="rect67"
   style="fill:#ffffff;stroke:none;stroke-width:0.47999999;stroke-linecap:butt" />
			</g>
			<g
   id="shape1513-23"
   transform="translate(52.0764,-11.0081)">
				<title
   id="title70">Sheet.1513</title>
				<rect
   x="0"
   y="94.863098"
   width="2.0392399"
   height="1.51483"
   class="st6"
   id="rect72"
   style="fill:#ffffff;stroke:none;stroke-width:0.47999999;stroke-linecap:butt" />
			</g>
			<g
   id="shape1514-25"
   transform="translate(39.7474,-7.14728)">
				<title
   id="title75">Sheet.1514</title>
				<path
   d="M 6.69,96.33 V 93.12 H 3.4 V 87.19 L 1.52,87.2 A 1.53071,1.53071 -180 0 0 0,88.74 l 0.04,6.12 a 1.53071,1.53071 -180 0 0 1.53,1.52 h 0.01 z"
   class="st7"
   id="path77"
   inkscape:connector-curvature="0"
   style="fill:#ffffff" />
				<path
   d="M 6.69,96.33 V 93.12 H 3.4 V 87.19 L 1.52,87.2 A 1.53071,1.53071 -180 0 0 0,88.74 l 0.04,6.12 a 1.53071,1.53071 -180 0 0 1.53,1.52 h 0.01"
   class="st8"
   id="path79"
   inkscape:connector-curvature="0"
   style="stroke:none;stroke-width:0.47999999;stroke-linecap:butt" />
			</g>
			<g
   id="shape1515-28"
   transform="translate(45.504,-7.1932)">
				<title
   id="title82">Sheet.1515</title>
				<path
   d="m 0,87.23 v 3.57 h 3.3 v 5.58 L 5.07,96.37 A 1.53071,1.53071 -180 0 0 6.59,94.83 L 6.55,88.71 A 1.53071,1.53071 -180 0 0 5.02,87.19 H 5.01 Z"
   class="st7"
   id="path84"
   inkscape:connector-curvature="0"
   style="fill:#ffffff" />
				<path
   d="m 0,87.23 v 3.57 h 3.3 v 5.58 L 5.07,96.37 A 1.53071,1.53071 -180 0 0 6.59,94.83 L 6.55,88.71 A 1.53071,1.53071 -180 0 0 5.02,87.19 H 5.01"
   class="st8"
   id="path86"
   inkscape:connector-curvature="0"
   style="stroke:none;stroke-width:0.47999999;stroke-linecap:butt" />
			</g>
			<g
   id="group1516-31"
   transform="translate(32.514,-1.71609)">
				<title
   id="title89">Sheet.1516</title>
				<g
   id="shape1517-32">
					<title
   id="title91">Sheet.1517</title>
					<circle
   cx="11.2059"
   cy="85.171997"
   class="st6"
   id="ellipse93"
   r="11.2059"
   style="fill:#ffffff;stroke:none;stroke-width:0.47999999;stroke-linecap:butt" />
				</g>
				<g
   id="shape1518-34"
   transform="translate(1.70079,-2.07893)">
					<title
   id="title96">Sheet.1518</title>
					<path
   d="M 9.51,77.75 A 9.50513,9.50513 0 1 1 0,87.25 9.50457,9.50457 0 0 1 9.51,77.75 Z m 0,-3.41 A 12.9067,12.9067 -180 1 0 22.41,87.25 12.9209,12.9209 -180 0 0 9.51,74.34 Z"
   class="st9"
   id="path98"
   inkscape:connector-curvature="0"
   style="fill:#212121;stroke:none;stroke-width:0.47999999;stroke-linecap:butt" />
				</g>
			</g>
			<g
   id="group1519-36"
   transform="translate(35.6984,-8.2165)">
				<title
   id="title102">Sheet.1519</title>
				<g
   id="shape1520-37"
   transform="translate(0,-3.87269)">
					<title
   id="title104">Sheet.1520</title>
					<rect
   x="0"
   y="94.858597"
   width="2.04491"
   height="1.51937"
   class="st10"
   id="rect106"
   style="fill:#76bc2d;stroke:none;stroke-width:0.47999999;stroke-linecap:butt" />
				</g>
				<g
   id="shape1521-39"
   transform="translate(14.3887,-3.87269)">
					<title
   id="title109">Sheet.1521</title>
					<rect
   x="0"
   y="94.858597"
   width="2.04491"
   height="1.51937"
   class="st10"
   id="rect111"
   style="fill:#76bc2d;stroke:none;stroke-width:0.47999999;stroke-linecap:butt" />
				</g>
				<g
   id="shape1522-41"
   transform="translate(2.0245)">
					<title
   id="title114">Sheet.1522</title>
					<path
   d="M 6.71,96.33 V 93.11 H 3.4 V 87.16 L 1.52,87.18 A 1.53071,1.53071 -180 0 0 0,88.72 l 0.04,6.13 a 1.53468,1.53468 -180 0 0 1.53,1.53 h 0.01 z"
   class="st11"
   id="path116"
   inkscape:connector-curvature="0"
   style="fill:#76bc2d" />
					<path
   d="M 6.71,96.33 V 93.11 H 3.4 V 87.16 L 1.52,87.18 A 1.53071,1.53071 -180 0 0 0,88.72 l 0.04,6.13 a 1.53468,1.53468 -180 0 0 1.53,1.53 h 0.01"
   class="st8"
   id="path118"
   inkscape:connector-curvature="0"
   style="stroke:none;stroke-width:0.47999999;stroke-linecap:butt" />
				</g>
				<g
   id="shape1523-44"
   transform="translate(7.79868,-0.0493228)">
					<title
   id="title121">Sheet.1523</title>
					<path
   d="m 0,87.21 v 3.58 h 3.31 v 5.59 L 5.09,96.37 A 1.53071,1.53071 -180 0 0 6.61,94.82 L 6.57,88.69 A 1.53524,1.53524 -180 0 0 5.04,87.17 H 5.03 Z"
   class="st11"
   id="path123"
   inkscape:connector-curvature="0"
   style="fill:#76bc2d" />
					<path
   d="m 0,87.21 v 3.58 h 3.31 v 5.59 L 5.09,96.37 A 1.53071,1.53071 -180 0 0 6.61,94.82 L 6.57,88.69 A 1.53524,1.53524 -180 0 0 5.04,87.17 H 5.03"
   class="st8"
   id="path125"
   inkscape:connector-curvature="0"
   style="stroke:none;stroke-width:0.47999999;stroke-linecap:butt" />
				</g>
			</g>
		</g>
	</g>
</svg>

<?xml version="1.0" encoding="UTF-8" standalone="no"?>
<!DOCTYPE svg PUBLIC "-//W3C//DTD SVG 1.1//EN" "http://www.w3.org/Graphics/SVG/1.1/DTD/svg11.dtd">
<!-- Generated by Microsoft Visio, SVG Export Shared Integration Runtime.svg Page-1 -->
<svg xmlns="http://www.w3.org/2000/svg" xmlns:xlink="http://www.w3.org/1999/xlink" xmlns:ev="http://www.w3.org/2001/xml-events"
		width="0.944882in" height="1.33858in" viewBox="0 0 68.0315 96.378" xml:space="preserve" color-interpolation-filters="sRGB"
		class="st12">
	<style type="text/css">
	<![CDATA[
		.st1 {fill:none;stroke:none;stroke-linecap:butt;stroke-width:0.48}
		.st2 {fill:url(#grad0-8);stroke:none;stroke-linecap:butt;stroke-width:0.48}
		.st3 {fill:#003067;stroke:none;stroke-linecap:butt;stroke-width:0.48}
		.st4 {fill:#50e6ff;stroke:none;stroke-linecap:butt;stroke-width:0.48}
		.st5 {fill:url(#grad0-20);stroke:none;stroke-linecap:butt;stroke-width:0.48}
		.st6 {fill:#ffffff;stroke:none;stroke-linecap:butt;stroke-width:0.48}
		.st7 {fill:#ffffff}
		.st8 {stroke:none;stroke-linecap:butt;stroke-width:0.48}
		.st9 {fill:#212121;stroke:none;stroke-linecap:butt;stroke-width:0.48}
		.st10 {fill:#76bc2d;stroke:none;stroke-linecap:butt;stroke-width:0.48}
		.st11 {fill:#76bc2d}
		.st12 {fill:none;fill-rule:evenodd;font-size:12px;overflow:visible;stroke-linecap:square;stroke-miterlimit:3}
	]]>
	</style>

	<defs id="Patterns_And_Gradients">
		<linearGradient id="grad0-8" x1="0" y1="0" x2="1" y2="0" gradientTransform="rotate(-90 0.5 0.5)">
			<stop offset="0" stop-color="#949494" stop-opacity="1"/>
			<stop offset="0.53" stop-color="#a2a2a2" stop-opacity="1"/>
			<stop offset="1" stop-color="#b3b3b3" stop-opacity="1"/>
		</linearGradient>
		<linearGradient id="grad0-20" x1="0" y1="0" x2="1" y2="0" gradientTransform="rotate(-90 0.5 0.5)">
			<stop offset="0" stop-color="#5e9624" stop-opacity="1"/>
			<stop offset="0.255" stop-color="#619c25" stop-opacity="1"/>
			<stop offset="0.51" stop-color="#76bc2d" stop-opacity="1"/>
			<stop offset="0.91" stop-color="#86d633" stop-opacity="1"/>
			<stop offset="1" stop-color="#86d633" stop-opacity="1"/>
		</linearGradient>
	</defs>
	<g>
		<title>Page-1</title>
		<g id="group1488-1" transform="translate(5.66929,-34.0157)">
			<title>Shared Integration Runtime</title>
			<g id="shape1489-2">
				<title>Sheet.1489</title>
				<rect x="0" y="39.685" width="56.6929" height="56.6929" class="st1"/>
			</g>
			<g id="group1490-4" transform="translate(11.9724,-0.933732)">
				<title>Sheet.1490</title>
				<g id="shape1491-5">
					<title>Sheet.1491</title>
					<path d="M0 42.52 A1.90035 1.90035 0 0 1 1.9 40.62 L30.91 40.62 A1.86633 1.86633 0 0 1 32.75 42.52 L32.75 94.48
								 A1.90091 1.90091 0 0 1 30.85 96.38 L1.9 96.38 A1.9338 1.9338 0 0 1 0 94.48 L0 42.52 Z" class="st2"/>
				</g>
				<g id="shape1492-9" transform="translate(4.40164,-32.6483)">
					<title>Sheet.1492</title>
					<path d="M20.01 96.38 L3.67 96.38 C3.63 96.38 3.6 96.38 3.57 96.38 A3.56825 3.56825 0 0 1 0 92.81 C0 92.78 0
								 92.76 0 92.74 A3.56825 3.56825 0 0 1 3.67 89.27 L20.01 89.27 A3.55181 3.55181 0 0 1 20.01 96.37
								 L20.01 96.38 Z" class="st3"/>
				</g>
				<g id="shape1493-11" transform="translate(4.40164,-43.2198)">
					<title>Sheet.1493</title>
					<path d="M20.01 96.38 L3.67 96.38 L3.6 96.38 A3.56825 3.56825 0 0 1 -0 92.84 C0 92.81 0 92.77 0 92.74 A3.56769
								 3.56769 0 0 1 3.67 89.27 L20.01 89.27 A3.55181 3.55181 0 0 1 20.01 96.38 L20.01 96.38 Z"
							class="st3"/>
				</g>
				<g id="shape1494-13" transform="translate(21.8098,-44.3537)">
					<title>Sheet.1494</title>
					<ellipse cx="2.40094" cy="93.977" rx="2.40094" ry="2.40094" class="st4"/>
				</g>
				<g id="shape1495-15" transform="translate(21.8098,-33.8156)">
					<title>Sheet.1495</title>
					<ellipse cx="2.40094" cy="93.977" rx="2.40094" ry="2.40094" class="st4"/>
				</g>
			</g>
			<g id="shape1496-17" transform="translate(35.1496,-0.993827)">
				<title>Sheet.1496</title>
				<ellipse cx="10.7717" cy="85.6063" rx="10.7717" ry="10.7717" class="st5"/>
			</g>
			<g id="shape1497-21" transform="translate(37.7274,-11.0081)">
				<title>Sheet.1497</title>
				<rect x="0" y="94.8631" width="2.03924" height="1.51483" class="st6"/>
			</g>
			<g id="shape1498-23" transform="translate(52.0764,-11.0081)">
				<title>Sheet.1498</title>
				<rect x="0" y="94.8631" width="2.03924" height="1.51483" class="st6"/>
			</g>
			<g id="shape1499-25" transform="translate(39.7474,-7.14728)">
				<title>Sheet.1499</title>
				<path d="M6.69 96.33 L6.69 93.12 L3.4 93.12 L3.4 87.19 L1.52 87.2 A1.53071 1.53071 -180 0 0 0 88.74 L0.04 94.86 A1.53071
							 1.53071 -180 0 0 1.57 96.38 L1.58 96.38 L6.69 96.33 Z" class="st7"/>
				<path d="M6.69 96.33 L6.69 93.12 L3.4 93.12 L3.4 87.19 L1.52 87.2 A1.53071 1.53071 -180 0 0 0 88.74 L0.04 94.86 A1.53071
							 1.53071 -180 0 0 1.57 96.38 L1.58 96.38" class="st8"/>
			</g>
			<g id="shape1500-28" transform="translate(45.504,-7.1932)">
				<title>Sheet.1500</title>
				<path d="M0 87.23 L0 90.8 L3.3 90.8 L3.3 96.38 L5.07 96.37 A1.53071 1.53071 -180 0 0 6.59 94.83 L6.55 88.71 A1.53071
							 1.53071 -180 0 0 5.02 87.19 L5.01 87.19 L0 87.23 Z" class="st7"/>
				<path d="M0 87.23 L0 90.8 L3.3 90.8 L3.3 96.38 L5.07 96.37 A1.53071 1.53071 -180 0 0 6.59 94.83 L6.55 88.71 A1.53071
							 1.53071 -180 0 0 5.02 87.19 L5.01 87.19" class="st8"/>
			</g>
			<g id="group1501-31" transform="translate(32.514,-1.71609)">
				<title>Sheet.1501</title>
				<g id="shape1502-32">
					<title>Sheet.1502</title>
					<ellipse cx="11.2059" cy="85.172" rx="11.2059" ry="11.2059" class="st6"/>
				</g>
				<g id="shape1503-34" transform="translate(1.70079,-2.07893)">
					<title>Sheet.1503</title>
					<path d="M9.51 77.75 A9.50513 9.50513 0 1 1 -0 87.25 A9.50457 9.50457 0 0 1 9.51 77.75 ZM9.51 74.34 A12.9067
								 12.9067 -180 1 0 22.41 87.25 A12.9209 12.9209 -180 0 0 9.51 74.34 Z" class="st9"/>
				</g>
			</g>
			<g id="group1504-36" transform="translate(35.6984,-8.2165)">
				<title>Sheet.1504</title>
				<g id="shape1505-37" transform="translate(1.64868E-14,-3.87269)">
					<title>Sheet.1505</title>
					<rect x="0" y="94.8586" width="2.04491" height="1.51937" class="st10"/>
				</g>
				<g id="shape1506-39" transform="translate(14.3887,-3.87269)">
					<title>Sheet.1506</title>
					<rect x="0" y="94.8586" width="2.04491" height="1.51937" class="st10"/>
				</g>
				<g id="shape1507-41" transform="translate(2.0245,5.68434E-14)">
					<title>Sheet.1507</title>
					<path d="M6.71 96.33 L6.71 93.11 L3.4 93.11 L3.4 87.16 L1.52 87.18 A1.53071 1.53071 -180 0 0 0 88.72 L0.04 94.85
								 A1.53468 1.53468 -180 0 0 1.57 96.38 L1.58 96.38 L6.71 96.33 Z" class="st11"/>
					<path d="M6.71 96.33 L6.71 93.11 L3.4 93.11 L3.4 87.16 L1.52 87.18 A1.53071 1.53071 -180 0 0 0 88.72 L0.04 94.85
								 A1.53468 1.53468 -180 0 0 1.57 96.38 L1.58 96.38" class="st8"/>
				</g>
				<g id="shape1508-44" transform="translate(7.79868,-0.0493228)">
					<title>Sheet.1508</title>
					<path d="M0 87.21 L0 90.79 L3.31 90.79 L3.31 96.38 L5.09 96.37 A1.53071 1.53071 -180 0 0 6.61 94.82 L6.57 88.69
								 A1.53524 1.53524 -180 0 0 5.04 87.17 L5.03 87.17 L0 87.21 Z" class="st11"/>
					<path d="M0 87.21 L0 90.79 L3.31 90.79 L3.31 96.38 L5.09 96.37 A1.53071 1.53071 -180 0 0 6.61 94.82 L6.57 88.69
								 A1.53524 1.53524 -180 0 0 5.04 87.17 L5.03 87.17" class="st8"/>
				</g>
			</g>
		</g>
	</g>
</svg>
